X:1
T:Title
%%score { ( 1 3 ) | ( 2 4 ) }
L:1/8
Q:1/4=94
M:3/4
K:Ab
V:1 treble nm="Grand Piano"
V:3 treble 
V:2 bass 
V:4 bass 
V:1
 Ec BA GA | z2 d4 | FG cB GF | F2[K:bass] E4 | Ec BA GA | e2 G4 | AB =dc B=D |[M:4/4] F2 z2 z4 | %8
w: Ira~B.~Wilson * * * * *||||||||
 c2 e2 A2 c2 | F2 [Fd]2 c .B3 | c3 d e2 c2 | d2 c2 B4 | c2 e2 A2 c2 | [Fd]2 [Ec]2 [Ec] .[DB]3 | %14
w: ||||||
 [FA]2 F2 E c3 | c3 B [CA]4 |] %16
w: ||
V:2
 A,,D, [A,C]2 E,2 | B,,F, B,2 F,2 | E,,E, [G,D]2 E,2 | A,,[=D,A,] [E,A,C]2 z2 | A,,E, [A,C]2 E,2 | %5
 B,,G, B,2 G,2 | B,,F,[K:treble] [A,B,F]2 .[A,B,=D]2 |[M:4/4][K:bass] D8 | %8
 [A,E]2 [G,B,E]2 [F,A,C]2 [E,G,E]2 | [D,A,]2 [B,,A,]2 [E,A,E] .[E,G,E]3 | %10
 [A,E]3 [A,B,E] [A,CA]2 [A,E]2 | [G,B,E]2[K:bass] [A,E]2 [E,G,E]4 | %12
 [A,E]2 [G,B,E]2 [F,A,C]2 [E,G,E]2 | [D,A,]2 [F,=A,]2 [B,,B,] .[B,,B,]3 | %14
 [=D,_C]2 [D,A,C]2 [E,A,=C] [E,A,E]3 | [E,G,E]3 [E,D] [A,,E,]4 |] %16
V:3
 x6 | e2 F2 z2 | x6 | z[K:bass] _C z2 E,2 | x6 | z2 E2 z2 | x6 |[M:4/4] z A, E6 | x8 | x8 | x8 | %11
 x8 | x8 | x8 | x8 | x8 |] %16
V:4
 x6 | x6 | x6 | x6 | x6 | x6 | x2[K:treble] x4 |[M:4/4][K:bass] [E,G,]F, [G,B,]6 | x8 | x8 | x8 | %11
 x2[K:bass] x6 | x8 | x8 | x8 | x8 |] %16

